X:1
T:A che piu strali
T:A che piu strali
T:Cornelius Verdonck
C:Cornelius Verdonck
%%score [ 1 2 3 4 ]
L:1/8
Q:1/4=120
M:4/4
K:F
V:1 treble nm="Soprano" snm="S"
V:2 treble nm="Alto" snm="A"
V:3 treble-8 nm="Tenor" snm="T"
V:4 bass nm="Bass" snm="B"
V:1
 z8 | d4 d2 d2 | BA Bc d2 _e2 | d4 z2 A2 | B4 G4 | F2 B2 A2 B2- | BB A2 B4 | z2 d2 f2 d2 | %8
w: |A che piu|stra- * * * * li'a-|mor s'io|mi ti|ren- do, s'io mi|_ ti ren- do,|s'io mi ti|
 ^c2 d4 c2 | d2 A2 A2 A2 | cd cB A4- | A2 G2 A4 | A4 f2 d2 | c2 A2 z2 E2 | FEFG A2 B2 | %15
w: ren- * *|do, a che piu-|stra- * * * *|* li'a- mor|s'io mi ti|ren- do, piu|stra- * * * * li'a-|
 A2 A2 d2 B2 | A2 D2 d4 | =B4 d4- | d2 d2 e4 | f4 d4 | z4 c4 | A4 =B4 | c4 A4 | d4 c2 c2 | A4 =B4 | %25
w: mor s'io mi ti|ren- * *|do, la-|* scia mi|vi- vo|e'in|tua pri-|gion, mi|ser- ra, e'in|tua pri-|
 c2 c2 d4- | d4 G2 c2 | A4 G4 | z2 d2 =B2 ^c2 | d6 c2 | A2 =B2 c2 A2 | B8 | A4 z2 c2 | c4 A2 B2- | %34
w: gion, mi- ser-|* ra, mi-|se- ra,|e'in tua pri-|gion, e'in|tua pri- gion, mi|ser-|ra, a|che piu far|
 B2 c2 d4 | d2 c2 B2 A2 | G2 g2 e3 f | d2 e4 d2- | d2 ^c2 d4 |"^-natural" f4 d4 | e2 c2 d2 c2- | %41
w: _ mi guer-|ra, s'io ti do|l'ar- m'e piu non|mi di- fen-|* * do,|et piu|non mi di- fen-|
 c2 =B2 c2 f2 | e2 f2 d2 d2 | c2 F2 z2 c2 | =B2 c2 A2 B2 | A4 G4 | z2 B2 A2 B2 | G2 A2 G2 F2- | %48
w: * * do, et|piu non mi di-|fen- do, et|piu non mi di-|fen- do,|et piu non|mi di- fen- do,|
 F2 B2 A2 G2 | d2 f2 e2 f2 | d2 e2 edcd | ef g4 ^f2 | g2 g2 ^f2 g2 | e2 f2 e4 |"^-natural" d4 f4 | %55
w: _ s'io ti do|l'ar- m'et piu non|mi di- fen- * * *||do, et piu non|m di- fen-|do, et|
 e2 f2 d2 _e2 | d8 | =B8 |] %58
w: piu non mi di-|fen-|do.|
V:2
 G4 G2 G2 | Bc BA G2 ^F2 | G2 G2 B2 G2 | F4 B,2 D2 | D2 D2 B,A,B,C | D2 B,2 C2 F2 | F2 F2 FEFG | %7
w: A che piu|stra- * * * * li'a-|mor s'io mi- ti|ren- do, a|che piu stra- * * *|* li'a- mor, a|che piu stra- * * *|
 A2 B2 A2 D2 | E2 A2 A4 | ^F4 z4 | z2 E2 FG FE/D/ | C2 D2 E2 E2 | FEFG A2 B2 | A3 A, B,2 G,2 | %14
w: * li'a- mor s'io|mi ti ren-|do,|piu stra- * * * *|* li'a- mor, piu|stra- * * * * li'a-|mor s'io mi ti|
 A,2 A,2 D2 F2- | FE^FG F2 G2 | ^F2 G4 F2 | G8- | G8 | z4 D4- | D2 D2 E4 | F4 D4 | z8 | z2 G2 E4 | %24
w: ren- do, s'io mi|_ _ _ _ _ ti|ren- * *|do,|_|la-|* scia- mi|vi- vo,||e'in tua|
 ^F4 G4- | G2 G2 A4 | D2 G2 E4 | D4 z2 G2 | E2 ^F2 G4 | A2 G4 E2 | z2 G2 E2 ^F2 | G2 D2 G4 | C8 | %33
w: pri- gion,-|_ mi- se-|ra, mi- se-|ra, e'in|tua pri- gion,|mi- se- ra,|e'in tua pri-|gion, mi- se-|ra,|
 A2 A4 F2 | G2 A2 B4 | F3 C D2 F2 | E3 F G2 A2 | GFED ^C2 D2 | E4 ^F3 G | A2 B2 A2 B2 | %40
w: a che piu|far mi guer-|ra, s'io ti do|l'ar- m'e piu non|mi _ _ _ _ di-|fen- do, _|_ et piu non|
 G2 A2 BAGF | G2 G2 z4 | z2 A2 F2 G2 | A2 D2 G2 C2 | G4 ^F2 G2- | G^F/E/ F2 G2 D2 | C2 D4 B,2 | %47
w: mi di- fen- * * *|* do,|s'io ti do|l'ar- m'et piu non|mi di- fen-|* * * * do, et|piu non mi|
 C2 C4 A,2 | A2 G2 F2 c2- | c2 B2 ccAF | G4 C4 | z4 c4 | =B2 c2 A2 B2 | A8 | ^F2 B2 A2 B2 | %55
w: di- fen- do,|s'io ti do l'ar-|* m'et piu non mi di-|fen- do,|et|piu non mi di-|fen-|do, et piu non|
 G2 A3 G G2 | ^F2 G4 F2 | G8 |] %58
w: mi di- * fen-||do.|
V:3
 z8 | z8 | z8 | d4 d2 d2 | BA Bc d2 _e2 | d2 d2 f2 d2 | c4 B2 d2 | f4 z2 f2 | a2 f2 e4 | %9
w: |||A che piu|stra- * * * * li'a-|mor s'io mi ti|ren- do, s'io|mi, s'io|mi ti ren-|
"^-natural" d2 d2 f2 e2 | a2 a2 z2 d2 | f2 d2 ^c4 | d2 d2 d2 d2 | fgfe d2 ^c2 | d2 d2 f2 d2 | %15
w: do s'io mi ti|ren- do, s'io|mi ti ren-|do, a che piu|stra- * * * * li'a-|mor s'io mi ti|
 d2 d2 A2 d2- | d2 B2 A4 | G4 =B4- | B2 =B2 c4 | d4 G4 | z8 | z4 g4 | e4 ^f4 | g8 | z4 G4 | %25
w: ren- do, s'io mi|_ ti ren-|do, la-|* scia mi|vi- vo||e'in|tua pri-|gion,|e'in|
 E4 ^F4 | G4 z2 A2 | ^F4 G4 | A4 z4 | d2 =B4 c2 | d4 c2 d2- | de f4 e2 | f8 | f2 f4 d2 | %34
w: tua pri-|gion, e'in|tua pri-|gion,|e'in tua pri-|gion, mi- se-||ra,|a che piu|
 _e2 c2 B4 | B2 A2 G2 F2 | c6 c2 | =B2 c2 A2 B2 | A4 d4 | z4 f4 | e2 f2 d2 _e2 | d4 G2 AB | c4 z4 | %43
w: far mi guer-|ra, s'io ti do|l'ar- m'e|piu non mi di-|fen- do,|et|piu non mi di-|fen- do, _ _|_|
 f4 e2 f2 | d2 _e2 d4- | d4 G4 | z2 g2 ^f2 g2 | e2 f2 c4 | d4 z2 G2 | A2 F2 G2 A2 | G2 c2 z2 f2 | %51
w: et piu non|mi di- fen-|* do,|et piu non|mi di- fen-|do, et|piu non mi di-|fen- do, s'io|
 e2 d2 a4 | d2 e3 d d2 | ^c2 d3 c/=B/ c2 | d8 | c4 =B2 c2 | A2 B2 A4 | G8 |] %58
w: ti do l'ar-|m'et piu non mi|di- fen- * * *|do,|et piu non|mi di- fen-|do.|
V:4
 z8 | z8 | G,4 G,2 G,2 | B,CB,A, G,2 ^F,2 | G,4 G,4 | B,2 G,2 F,4- | F,4 B,,4 | z2 B,2 D2 B,2 | %8
w: ||A che- piu|stra- * * * * li'a-|mor s'io|mi ti ren-|* do,|s'io mi- ti|
 A,8 | D,4 z2 A,2 | A,2 A,2 F,E,F,G, | A,2 B,2 A,4 | z8 | z2 D,2 G,2 E,2 | D,8- | D,8- | D,8 | %17
w: ren-|do, a|che piu stra- * * *|* li'a- mor||s'io mi te|ren-|||
 G,8 | z8 | z4 =B,4- | B,2 =B,2 C4 | D4 G,4 | z4 D4 | =B,4 C4 | D8 | z4 D,4 | =B,,4 C,4 | %27
w: do,||la-|* scia mi|vi- vo|e'in|tua pri-|gion,|e'in|tua pri-|
 D,4 z2 E,2 | ^C,2 D,2 E,2 E,2 | ^F,2 G,2 z2 A,2 | ^F,2 G,2 A,2 D2 | B,3 A, G,4 | F,8 | z8 | z8 | %35
w: gion, e'in|tua pri- gion, tua|pri- gion, e'in|tua pri- gion, mi-|se- * *|ra,|||
 z8 | z8 | z8 | z8 | D2 D4 B,2 | C2 A,2 G,4 | G,2 G,2 E,2 D,2 | A,4 B,4 | A,2 B,2 G,2 A,2 | %44
w: ||||a che piu|far mi guer-|ra, s'io ti do|l'ar- m'et|piu non mi di-|
 G,2 C,2 z4 | z4 B,4 | A,2 G,2 D2 G,2 | z2 F,2 E,2 F,2 | D,6 _E,2 | D,4 C,2 C2 | =B,2 C2 A,4- | %51
w: fen- do,|s'io|ti do l'ar- me|et piu no|mi di-|fen- do, et|piu non mi|
 A,2 B,2 A,4 | G,2 C2 D2 G,2 | A,8 | D,4 z2 B,2 | C2 F,2 G,2 C,2 | D,8 | G,,8 |] %58
w: _ di- fen-|do, non mi di-|fan-|do, et|piu non mi di-|fen-|do.|

